X:85
T:The Minstrel Boy
M:4/4
L:1/8
K:C
G,2 | "C" C3 D "F" (FE) D C | "C" E2 "G" G2 "Am" c2 "C" B c | "F" A3 "C" G (E>F G)E |
w: The min- strel boy-- to the war is gone, In the ranks of death-- you will
"Dm" D2 "G" D2 "C" C2 G,2 | C3 D "F" (FE) D C | "C" E2 "G" G2 "Am" c2 "C" B c | "F" A2 G2 "C" (E>F) (GE) |
w: find-- him; His fa-ther's sword-- he has gird-ed on, And his wild harp slu-ng -be-
"Dm" D2 "G" D2 "C" C2 "G" G2 | "Am" c2 "E7" B2 "Am" A2 (B c) | "G" B2 "Adim7" A2 "Em" G3 "E7" ^G | "Am" A2 "E7" E2 "Am" E2 "E7" ^G2 |
w:hind-- him. - "Land of song!" said the war-rior bard, "Though all the world be-
"Am" (A2 "E7" B2) "Am" c2 "Fm" c2 | "C" C3 D "F" (FE) (DC) | "C" E2 "G" G2 "Am" c2 "C" (Bc) |
w:trays-- thee, One sword, at least,-- thy-- rights shall guard, One--
"F" A2 "C" G2 (E>F) (GE) | "Dm" D2 "G" D2 "C" C2 |]
w: faith-ful harp-- shall-- praise-- thee."
W:The minstrel fell,  but the foeman's chains
W:Could not bring that proud soul under;
W:The harp he lov'd never spoke again,
W:For he tore its chords asunder;
W:And said, "No chain shall sully thee,
W:Thou soul of love and bravery;
W:Thy songs were made for the pure and free,
W:They shall never sound in slavery."
W:
W:The Minstrel Boy will return we pray
W:When we hear the news we all will cheer it,
W:The minstrel boy will return one day,
W:Torn perhaps in body, not in spirit.
W:Then may he play on his harp in peace,
W:In a world such as Heaven intended,
W:For all the bitterness of man must cease,
W:And ev'ry battle must be ended.

